X:144
T:Katie's Fancy
C:Joe Buchanan's Scottish Tome - Page 256.5
I:256 5
Z:Carl Allison
R:Jig
L:1/8
M:6/8
K:G
G/E/ | DEF G2 A | Bgf efg | AGA BGE | DEF G2 A | Bgf efg | dBG FGA | GG G2 :|
d | gfe agf | gfe dBG | gfe dcB | AGA BGE | DEF G2 A | Bgf efg | dBG FGA | GG G2 :| 
d | dgf gab | eag fed| bag fag | fge d2 d | ece fed | dec Bcd | cAF DFA | BGG G2 :| 

